packages/foundations/assets/icons/functional/images/arrows/arrow_up_16.svg

<svg width="16" height="16" viewBox="0 0 16 16" fill="none" xmlns="http://www.w3.org/2000/svg">
<g clip-path="url(#clip0_77_488)">
<path fill-rule="evenodd" clip-rule="evenodd" d="M8.55 2.65002C8.48235 2.57047 8.39798 2.50682 8.30291 2.4636C8.20784 2.42039 8.10441 2.39868 8 2.40002C7.8 2.40002 7.6 2.47502 7.425 2.65002L3.425 6.62502C3.27928 6.7809 3.19877 6.98665 3.2 7.20002C3.2 7.65002 3.55 8.00002 4 8.00002C4.2 8.00002 4.4 7.92502 4.55 7.77502L7.2 5.12502V12.8C7.2 13.25 7.55 13.6 8 13.6C8.425 13.6 8.8 13.25 8.8 12.8V5.12502L11.425 7.77502C11.5832 7.91701 11.7874 7.99693 12 8.00002C12.425 8.00002 12.8 7.65002 12.8 7.20002C12.8015 7.01524 12.7374 6.83592 12.619 6.69402L8.55 2.65002Z" fill="#1A1C1F"/>
</g>
<defs>
<clipPath id="clip0_77_488">
<rect width="16" height="16" fill="white"/>
</clipPath>
</defs>
</svg>

<svg xmlns="http://www.w3.org/2000/svg" width="16" height="16" fill="none"><g clip-path="url(#a)"><path fill="#1A1C1F" fill-rule="evenodd" d="M8.55 2.65A.71.71 0 0 0 8 2.4c-.2 0-.4.075-.575.25l-4 3.975A.84.84 0 0 0 3.2 7.2c0 .45.35.8.8.8.2 0 .4-.075.55-.225l2.65-2.65V12.8c0 .45.35.8.8.8.425 0 .8-.35.8-.8V5.125l2.625 2.65A.88.88 0 0 0 12 8c.425 0 .8-.35.8-.8a.78.78 0 0 0-.181-.506z" clip-rule="evenodd"/></g><defs><clipPath id="a"><path fill="#fff" d="M0 0h16v16H0z"/></clipPath></defs></svg>
